storage/app/icons/phosphoricons/bold/app-store-logo-bold.svg

<svg xmlns="http://www.w3.org/2000/svg" fill="currentColor" viewBox="0 0 256 256"><path d="M244 160a12 12 0 0 1-12 12h-31.33l17.66 29.89a12 12 0 1 1-20.66 12.21L140.9 118a12 12 0 0 1 20.66-12.2l24.92 42.2H232a12 12 0 0 1 12 12m-110.85-12H97.39l64.94-109.89a12 12 0 1 0-20.66-12.21L128 49l-13.67-23.1a12 12 0 1 0-20.66 12.21l20.39 34.51L69.52 148H24a12 12 0 0 0 0 24h109.15a12 12 0 0 0 0-24m-74.32 41.67a12 12 0 0 0-16.43 4.22l-4.73 8a12 12 0 1 0 20.66 12.21l4.73-8a12 12 0 0 0-4.23-16.43"/></svg>

<svg xmlns="http://www.w3.org/2000/svg" viewBox="0 0 256 256" fill="currentColor"><path d="M244,160a12,12,0,0,1-12,12H200.67l17.66,29.89a12,12,0,1,1-20.66,12.21L140.9,118a12,12,0,0,1,20.66-12.2L186.48,148H232A12,12,0,0,1,244,160ZM133.15,148H97.39L162.33,38.11A12,12,0,1,0,141.67,25.9L128,49,114.33,25.9A12,12,0,1,0,93.67,38.11l20.39,34.51L69.52,148H24a12,12,0,0,0,0,24H133.15a12,12,0,0,0,0-24ZM58.83,189.67a12,12,0,0,0-16.43,4.22l-4.73,8A12,12,0,1,0,58.33,214.1l4.73-8A12,12,0,0,0,58.83,189.67Z"/></svg>
